components/Common/Svg/svgs/done.svg

<svg width="40" height="40" viewBox="0 0 40 40" fill="none" xmlns="http://www.w3.org/2000/svg">
<path d="M3.17188 13.0156C3.81906 13.0156 4.34375 12.4909 4.34375 11.8438V5.90625H10.2812C10.9284 5.90625 11.4531 5.38156 11.4531 4.73438C11.4531 4.08719 10.9284 3.5625 10.2812 3.5625H3.17188C2.52469 3.5625 2 4.08719 2 4.73438V11.8438C2 12.4909 2.52469 13.0156 3.17188 13.0156Z" fill="#161616"/>
<path d="M4.34375 34.0938H10.2812C10.9284 34.0938 11.4531 34.6184 11.4531 35.2656C11.4531 35.9128 10.9284 36.4375 10.2812 36.4375H3.17188C2.52469 36.4375 2 35.9128 2 35.2656V28.1562C2 27.5091 2.52469 26.9844 3.17188 26.9844C3.81906 26.9844 4.34375 27.5091 4.34375 28.1562V34.0938Z" fill="#161616"/>
<path d="M35.6562 28.1562C35.6562 27.5091 36.1809 26.9844 36.8281 26.9844C37.4753 26.9844 38 27.5091 38 28.1562V35.2656C38 35.9128 37.4753 36.4375 36.8281 36.4375H29.7188C29.0716 36.4375 28.5469 35.9128 28.5469 35.2656C28.5469 34.6184 29.0716 34.0938 29.7188 34.0938H35.6562V28.1562Z" fill="#161616"/>
<path d="M29.6406 3.5625H36.8281C37.4753 3.5625 38 4.08719 38 4.73438V11.8438C38 12.4909 37.4753 13.0156 36.8281 13.0156C36.1809 13.0156 35.6562 12.4909 35.6562 11.8438V5.90625H29.6406C28.9934 5.90625 28.4688 5.38156 28.4688 4.73438C28.4688 4.08719 28.9934 3.5625 29.6406 3.5625Z" fill="#161616"/>
<path d="M24.2071 17.2929C24.5977 17.6834 24.5977 18.3166 24.2071 18.7071L20.2071 22.7071C20.0196 22.8946 19.7652 23 19.5 23C19.2348 23 18.9804 22.8946 18.7929 22.7071L16.7929 20.7071C16.4024 20.3166 16.4024 19.6834 16.7929 19.2929C17.1834 18.9024 17.8166 18.9024 18.2071 19.2929L19.5 20.5858L22.7929 17.2929C23.1834 16.9024 23.8166 16.9024 24.2071 17.2929Z" fill="#161616"/>
<path fill-rule="evenodd" clip-rule="evenodd" d="M20 10C14.4772 10 10 14.4772 10 20C10 25.5228 14.4772 30 20 30C25.5228 30 30 25.5228 30 20C30 14.4772 25.5228 10 20 10ZM12 20C12 15.5817 15.5817 12 20 12C24.4183 12 28 15.5817 28 20C28 24.4183 24.4183 28 20 28C15.5817 28 12 24.4183 12 20Z" fill="#161616"/>
</svg>

<svg width="40" height="40" viewBox="0 0 40 40" fill="none" xmlns="http://www.w3.org/2000/svg"><path d="M3.172 13.016c.647 0 1.172-.525 1.172-1.172V5.906h5.937a1.172 1.172 0 0 0 0-2.343h-7.11C2.526 3.563 2 4.087 2 4.734v7.11c0 .647.525 1.172 1.172 1.172ZM4.344 34.094h5.937a1.172 1.172 0 1 1 0 2.343h-7.11A1.172 1.172 0 0 1 2 35.267v-7.11a1.172 1.172 0 0 1 2.344 0v5.938ZM35.656 28.156a1.172 1.172 0 0 1 2.344 0v7.11c0 .647-.525 1.172-1.172 1.172h-7.11a1.172 1.172 0 0 1 0-2.344h5.938v-5.938ZM29.64 3.563h7.188c.647 0 1.172.524 1.172 1.171v7.11a1.172 1.172 0 0 1-2.344 0V5.906h-6.015a1.172 1.172 0 0 1 0-2.343ZM24.207 17.293a1 1 0 0 1 0 1.414l-4 4a1 1 0 0 1-1.414 0l-2-2a1 1 0 0 1 1.414-1.414l1.293 1.293 3.293-3.293a1 1 0 0 1 1.414 0Z" fill="#161616"/><path fill-rule="evenodd" clip-rule="evenodd" d="M20 10c-5.523 0-10 4.477-10 10s4.477 10 10 10 10-4.477 10-10-4.477-10-10-10Zm-8 10a8 8 0 1 1 16 0 8 8 0 0 1-16 0Z" fill="#161616"/></svg>
